vsi/menu_light.svg

<svg viewBox="0 0 16 16" fill="none" xmlns="http://www.w3.org/2000/svg" height="1em" width="1em">
  <g clip-path="url(#a)">
    <path d="M16.0002 5H0.000244141V4H16.0002V5ZM16.0002 13H0.000244141V12H16.0002V13ZM16.0002 8.99218H0.000244141V8H16.0002V8.99218Z" fill="#424242"/>
  </g>
  <defs>
    <clipPath id="a">
      <rect width="16" height="16" fill="white" transform="translate(0.000244141)"/>
    </clipPath>
  </defs>
</svg>

<svg viewBox="0 0 16 16" fill="none" xmlns="http://www.w3.org/2000/svg" height="1em" width="1em">
  <g clip-path="url(#a)">
    <path d="M16 5H0V4h16v1Zm0 8H0v-1h16v1Zm0-4.008H0V8h16v.992Z" fill="#424242"/>
  </g>
  <defs>
    <clipPath id="a">
      <path fill="#fff" d="M0 0h16v16H0z"/>
    </clipPath>
  </defs>
</svg>
